svgs/sharp-regular/circle-calendar.svg

<svg xmlns="http://www.w3.org/2000/svg" viewBox="0 0 512 512"><!--! Font Awesome Pro 6.6.0 by @fontawesome - https://fontawesome.com License - https://fontawesome.com/license (Commercial License) Copyright 2024 Fonticons, Inc. --><path d="M464 256A208 208 0 1 0 48 256a208 208 0 1 0 416 0zM0 256a256 256 0 1 1 512 0A256 256 0 1 1 0 256zM224 112l0 16 0 16 64 0 0-16 0-16 32 0 0 16 0 16 16 0 48 0 0 48 0 32 0 96 0 48-48 0-160 0-48 0 0-48 0-96 0-32 0-48 48 0 16 0 0-16 0-16 32 0zM176 224l0 96 160 0 0-96-160 0z"/></svg>

<svg xmlns="http://www.w3.org/2000/svg" viewBox="0 0 512 512"><!--! Font Awesome Pro 6.4.2 by @fontawesome - https://fontawesome.com License - https://fontawesome.com/license (Commercial License) Copyright 2023 Fonticons, Inc. --><path d="M464 256A208 208 0 1 0 48 256a208 208 0 1 0 416 0zM0 256a256 256 0 1 1 512 0A256 256 0 1 1 0 256zM224 112v16 16h64V128 112h32v16 16h16 48v48 32 96 48H336 176 128V320 224 192 144h48 16V128 112h32zM176 224v96H336V224H176z"/></svg>
